X:82
T:Chordal Jig, The
R:jig
Z:Transcribed by Dave Marshall
M:6/8
K:D
|: BAF ~E3 | FEF DFA | BAF ~E3 | ~B3 Bcd |
BAF ~E3 | FEF DFA | def edc |1 ~B3 Bcd :|2 ~B3 B2c
|: ~d3 fed | ~c3 edc | ~d3 fed | ~f3 fga |
~d3 fed | ~c3 edc | dcB cBA |1 ~B3 B2c :|2 ~B3 Bcd |
